X:1
T:Bear Them the News
T:Bear Them the News
T:Thoro Harris
T:Ada J. Blenkhorn, 1910
T:Public Domain Courtesy of the Cyber Hymnal™
T:Public Domain Courtesy of the Cyber Hymnal™
C:Thoro Harris
Z:Public Domain
Z:Courtesy of the Cyber Hymnal™
%%score ( 1 2 ) ( 3 4 )
L:1/8
Q:1/4=110
M:6/8
K:Ab
V:1 treble 
V:2 treble 
V:3 bass 
V:4 bass 
V:1
 [CE] | [CE]2 [DF] [CE]2 [=B,=D] | [CE]3- [CE]2 [CA] | [Ec]2 [Fd] [Ec]2 [=D=B] | %4
w: 1.~A-|cross the o- cean|wide, * That|sweeps the Or- ient|
w: 2.~In|this, our land so|fair, * By|hea- then foot un-|
w: 3.~There|is so much to|do, * A-|broad, and here at|
 [Ec]3- [Ec]2 [EB] | [FA]2 [FB] [FA]2 [=EG] | [FA]2 [GB] [FA]2 [DF] | E3 [Ec]3 | %8
w: strand, * There|hea- then night a-|bides, Tho’ beau- teous|is the|
w: trod, * Where|point the spires in|air, ’Neath which we|wor- ship|
w: home; * The|Lord hath need of|you To help His|king- dom|
 [EB]3- [EB]2 [DE] | [CE]2 [DF] [CE]2 [=B,=D] | [CE]3- [CE]2 [CA] | [Ec]2 [Fd] [Ec]2 [=D=B] | %12
w: land; * And|hu- man hearts are|there, * And|hu- man need is|
w: God, * Are|souls from Christ a-|stray, * Are|eyes with weep- ing|
w: come; * To|work, to give, to|pray, * To|la- bor, not in|
 [Ec]3- [Ec]2 [Ec] | [Ee]2 [Ee] [Ee]2 [Ed] | [Ec]3 [=DA]3 | [Ec]2 [DB] [DF]2 [DG] | [CA]3- [CA]2 || %17
w: great: * To|save them from des-|pair, Why|will you long- er|wait? *|
w: dim; * Go,|search for them to-|day, And|lead them back to|Him. *|
w: vain, * To|bring that glor- ious|day, When|He shall come a-|gain. *|
"^Refrain" [_Gc] | [Fd]2 [Fd] [Fd]2 [Fd] | [DF]3- [DF]2 [Ed] | [Ec]2 [Ec] [Ec]2 [CA] | %21
w: Go,|bear to them the|news, * No|long- er make ex-|
w: ||||
w: ||||
 [CE]3- [CE]2 [Ec] | [EB]2 [EB] [=DB]2 [DB] | e3- [Ge]2 [EG] | [=DB]2 [DA] [DG]2 [DF] | %25
w: cuse; * The|Lord’s com- mand o-|bey, “Go work,|* go work to-|
w: ||||
w: ||||
 E3- E2 [Ed] | [Ec]2 [Ed] [Ee]2 [Ec] | [CA-]3 [EA]2 [EG] | [DF]2 [FA] [Fd]2 [DF] | %29
w: day.” * Go,|seek to save the|lost, Nor wait|to count the cost;|
w: ||||
w: ||||
 [CE]3- [CE]2 [CE] | [DF]2 [EG] [EA]2 [EB] | [Ec]2 [Ec] [Dd]2 [A=d] | [Ae]3 [DG]3 | [CA]3- [CA]2 |] %34
w: The * Mas-|ter of the vine-|yard Will your toil|re- pay.||
w: |||||
w: |||||
V:2
 x | x6 | x6 | x6 | x6 | x6 | x6 | E3 x3 | x6 | x6 | x6 | x6 | x6 | x6 | x6 | x6 | x5 || x | x6 | %19
 x6 | x6 | x6 | x6 | E2 A x3 | x6 | E3- E2 x | x6 | x6 | x6 | x6 | x6 | x6 | x6 | x5 |] %34
V:3
 [A,,A,] | [A,,A,]2 [A,,A,] [A,,A,]2 [A,,A,] | [A,,A,]3- [A,,A,]2 [A,,A,] | A,2 A, A,2 A, | %4
w: ~|~ ~ ~ ~|~ * ~|~ ~ ~ ~|
 A,3- A,2 [C,A,] | [D,D]2 [D,D] [D,D]2 [D,D] | [D,D]2 [D,D] [D,D]2 [D,A,] | [C,A,]3 [A,,A,]3 | %8
w: ~ * ~|~ ~ ~ ~|~ ~ ~ ~|~ ~|
 [E,G,]3- [E,G,]2 [E,G,] | [A,,A,]2 [A,,A,] [A,,A,]2 [A,,A,] | [A,,A,]3- [A,,A,]2 [A,,A,] | %11
w: ~ * ~|~ ~ ~ ~|~ * ~|
 A,2 A, A,2 A, | A,3- A,2 A, | [A,,C]2 [B,,G,] [C,A,]2 [E,B,] | A,3 [F,A,]3 | %15
w: ~ ~ ~ ~|~ * ~|~ ~ ~ ~|~ ~|
 [E,A,]2 [E,G,] [E,A,]2 [E,B,] | [A,,A,]3- [A,,A,]2 || A, | [D,A,]3 [D,A,]3 | %19
w: ~ ~ ~ ~|~ *|Go,|bear to|
 [D,A,]2 [E,A,] [F,A,]2 [G,B,] | A,3 A,3 | A,2 A, A,2 [A,,A,] | [E,G,]3 [F,A,]3 | %23
w: them the news, No|long- er|make ex- cuse; The|Lord’s com-|
 [G,B,]2 [F,B,] [E,B,]2 [E,B,] | [B,,B,]2 [B,,B,] [B,,B,]2 [B,,B,] | [E,G,]3- [E,G,]2 [E,B,] | %26
w: mand o- bey, *|||
 A,2 [A,B,] [A,C]2 A, | A,3- [C,A,]2 [C,A,] | [D,A,]2 [D,A,] [D,A,]2 [D,A,] | %29
w: |||
 [A,,A,]3- [A,,A,]2 [A,,A,] | [D,A,]2 [B,,B,] [C,A,]2 [E,G,] | A,2 [_G,A,] [F,A,]2 [_F,=B,] | %32
w: |||
 [E,C]3 [E,B,]3 | [A,,A,]3- [A,,A,]2 |] %34
w: ||
V:4
 x | x6 | x6 | A,2 A, A,2 A, | A,3- A,2 x | x6 | x6 | x6 | x6 | x6 | x6 | A,2 A, A,2 A, | %12
 A,3- A,2 A, | x6 | A,3 x3 | x6 | x5 || A, | x6 | x6 | A,3 A,3 | A,2 A, A,2 x | x6 | x6 | x6 | x6 | %26
 A,2 x A, x2 | A,3 x3 | x6 | x6 | x6 | A,2 x4 | x6 | x5 |] %34

